src/images/fdic-brand.svg

<svg fill="none" height="50" viewBox="0 0 90 50" width="90" xmlns="http://www.w3.org/2000/svg"><g fill="#21295e"><path d="m83.8074 48.1258c1.6651-.6924 3.1374-1.7214 4.424-3.1063l-4.1212-4.6531c-.6399.6601-1.4105 1.2296-2.3118 1.702s-1.9333.7119-3.0892.7119c-1.9264 0-3.4745-.7054-4.651-2.1098-1.1765-1.4043-1.7613-3.4364-1.7613-6.0768 0-1.262.172-2.401.5298-3.4041.3509-1.0031.8256-1.8509 1.4173-2.5433.5917-.6925 1.2797-1.2231 2.064-1.592.7775-.3754 1.61-.5566 2.4975-.5566 1.0114 0 1.899.1942 2.6833.5825.7775.3883 1.5343.8866 2.2705 1.4884l4.1212-4.7437c-1.0733-1.0031-2.3805-1.8767-3.9423-2.608s-3.33-1.1002-5.3184-1.1002c-1.8921 0-3.7016.3301-5.4285.9902s-3.2543 1.6179-4.5822 2.8669-2.3943 2.7892-3.1855 4.6142c-.7981 1.825-1.1903 3.9154-1.1903 6.271 0 2.3816.3853 4.4719 1.149 6.271.7637 1.7927 1.7957 3.2876 3.0892 4.4849 1.3004 1.1907 2.814 2.0838 4.534 2.6727 1.727.5889 3.5365.8866 5.4285.8866 1.9127-.0129 3.7084-.3559 5.3734-1.0484zm-23.5233.5178v-28.0156h-7.8847v28.0091h7.8847zm-28.0437-22.0682h.4541c1.0665 0 2.0778.11 3.0204.3236.9495.2135 1.7614.6083 2.4494 1.1843.688.5759 1.2315 1.3784 1.6237 2.4139.3991 1.0354.5986 2.3686.5986 4.0059s-.1995 2.9899-.5986 4.0512c-.399 1.0614-.9426 1.8962-1.6237 2.4981-.6812.6018-1.5068 1.029-2.4494 1.2684-.9426.2459-1.9539.3689-3.0204.3689h-.4541zm1.3761 22.0682c2.1397 0 4.1143-.2718 5.9376-.8219 1.8163-.5436 3.3919-1.3914 4.7198-2.5434 1.3279-1.1519 2.3599-2.6145 3.0892-4.4007.7362-1.7797 1.1008-3.9088 1.1008-6.3745s-.3715-4.5819-1.1215-6.3357c-.7499-1.7538-1.7957-3.1905-3.1373-4.3101-1.3417-1.1196-2.9585-1.9415-4.8368-2.4527-1.8783-.5178-3.9492-.7766-6.2059-.7766h-8.7998v28.0091h9.2539zm-24.56229 0v-10.2575h9.89369v-6.2063h-9.89369v-5.3456h11.54499v-6.2062h-19.42281v28.0091h7.87782z"/><path d="m84.0135 15.3807v-6.53479c.3441-.81021.7638-1.38134 1.2385-1.7134.4817-.32541.9427-.49143 1.3762-.49143.2408 0 .4404.01328.6055.03984l.5436.13282.4541-2.17827c-.3165-.1461-.7362-.21915-1.2661-.21915-.5917 0-1.1628.18594-1.7201.55784-.5574.37191-1.0321.90319-1.4243 1.6005h-.0757l-.1789-1.8927h-2.1399v10.69874zm-13.1353-8.3478c.4954-.45159 1.0734-.67739 1.7408-.67739.7638 0 1.3349.23908 1.7064.70395.3647.47152.5505 1.12234.5505 1.95248h-4.9197c.117-.86334.4266-1.52745.922-1.97904zm4.0596 8.2814c.6468-.2191 1.2317-.4914 1.7615-.8301l-.8807-1.5673c-.406.2457-.8188.4383-1.2317.5778-.4128.1394-.8601.2058-1.3417.2058-.9014 0-1.6445-.259-2.2225-.777s-.9289-1.2551-1.0459-2.2114h7.0459c.0275-.1329.055-.3055.0757-.5247.0275-.21915.0344-.45158.0344-.6973 0-.73716-.0963-1.42119-.2959-2.04546-.1995-.62426-.4816-1.16218-.8738-1.61378-.3854-.45159-.8601-.79693-1.4312-1.04929-.5711-.24572-1.2317-.3719-1.9886-.3719-.6468 0-1.2798.13283-1.8991.39183-.6192.259-1.1628.6309-1.6376 1.10906-.4747.47815-.8532 1.06921-1.1422 1.76652-.2821.69732-.4266 1.48096-.4266 2.35092 0 .8899.1376 1.6736.4198 2.3642.2821.6907.6674 1.2751 1.1628 1.7533.4954.4781 1.0734.8434 1.7339 1.1024.6606.2524 1.3762.3785 2.1468.3785.7156.0133 1.3899-.0929 2.0367-.3121zm-17.5252-1.9392c-.3853-.1328-.7706-.3652-1.1628-.6973v-4.98744c.8394-.79692 1.6582-1.19539 2.4357-1.19539.8395 0 1.4519.29885 1.8303.89655.3785.59769.5642 1.42783.5642 2.50368 0 1.222-.2477 2.1384-.7431 2.756-.4954.6177-1.1147.9232-1.8509.9232-.3303 0-.6881-.0665-1.0734-.1993zm3.3991 1.8728c.5711-.259 1.0734-.6375 1.5138-1.1356.4403-.4981.7844-1.1024 1.0458-1.8197.2615-.7172.3922-1.5341.3922-2.45053 0-.83013-.0963-1.57393-.2959-2.24468-.1995-.67075-.4816-1.23524-.86-1.7134-.3785-.47151-.8326-.83677-1.3762-1.08913s-1.1628-.37854-1.8509-.37854c-.5711 0-1.1284.12618-1.6789.3719s-1.0596.57113-1.5275.95631l.0688-1.78645v-3.95808h-2.5941v15.3807h2.0505l.2271-1.129h.0688c.4679.4516.9633.7903 1.4793 1.0361.523.239 1.0321.3586 1.5482.3586.6193-.0067 1.2179-.1395 1.789-.3985zm-25.3968.1328v-7.47118c.8601-.8899 1.6307-1.32821 2.3257-1.32821.5849 0 1.0183.1793 1.3005.54456.2752.36526.4197.98952.4197 1.87279v6.38204h2.594v-7.47118c.8601-.8899 1.6307-1.32821 2.3257-1.32821.5711 0 .9977.1793 1.2729.54456.2753.36526.4198.98952.4198 1.87279v6.38204h2.6215v-6.70746c0-1.36806-.2752-2.41735-.8325-3.14787-.5574-.73051-1.4244-1.10241-2.5941-1.10241-.7087 0-1.3486.18595-1.9197.54456-.5711.36526-1.1216.8235-1.6445 1.37471-.2546-.61098-.6261-1.0825-1.1147-1.41455-.4885-.33206-1.1422-.50472-1.9541-.50472-.695 0-1.3142.16602-1.8647.50472-.5504.33205-1.0527.73716-1.5206 1.22196h-.0895l-.1789-1.46104h-2.1399v10.6988h2.5734zm-13.1353-8.3478c.4954-.45159 1.0734-.67739 1.7408-.67739.7638 0 1.3349.23908 1.7064.70395.3647.47152.5505 1.12234.5505 1.95248h-4.9197c.1169-.86334.4266-1.52745.922-1.97904zm4.0665 8.2814c.6468-.2191 1.2317-.4914 1.7615-.8301l-.8808-1.5673c-.4059.2457-.8188.4383-1.2316.5778-.4129.1394-.8601.2058-1.3418.2058-.9013 0-1.6444-.259-2.2224-.777s-.9289-1.2551-1.0459-2.2114h7.039c.0275-.1329.055-.3055.0757-.5247.0275-.21915.0344-.45158.0344-.6973 0-.73716-.0964-1.42119-.2959-2.04546-.1995-.62426-.4816-1.16218-.8738-1.61378-.3854-.45159-.8601-.79693-1.4312-1.04929-.5711-.24572-1.2317-.3719-1.9886-.3719-.6468 0-1.2798.13283-1.8991.39183-.6192.259-1.1628.6309-1.6376 1.10906-.4747.47815-.8532 1.06921-1.1422 1.76652-.2821.69732-.4266 1.48096-.4266 2.35092 0 .8899.1376 1.6736.4198 2.3642.2821.6907.6674 1.2751 1.1628 1.7533.4954.4781 1.0734.8434 1.7339 1.1024.6606.2524 1.3762.3785 2.1468.3785.7156.0133 1.3968-.0929 2.0436-.3121zm-22.80274.0664v-6.51486c0-.33206-.01376-.69732-.0344-1.08914s-.05505-.79029-.08945-1.18875c-.0344-.39847-.06881-.79029-.11009-1.17547-.04129-.38519-.06881-.7438-.10321-1.07586h.08945l1.1766 3.3139 2.43578 6.40198h1.55505l2.41511-6.40198 1.1973-3.3139h.0894c-.0275.33206-.0688.69067-.1101 1.07586-.0481.38518-.0825.777-.1169 1.17547-.0276.39846-.0551.79693-.0757 1.18875-.0276.39182-.0344.75708-.0344 1.08914v6.51486h2.4151v-14.25172h-2.9794l-2.55271 6.97313c-.16514.45159-.31651.90983-.46101 1.38134-.13761.47816-.29587.94305-.46101 1.40795h-.08945c-.16513-.4649-.32339-.92979-.47477-1.40795-.15137-.47151-.30963-.92975-.47477-1.38134l-2.61467-6.97313h-2.95872v14.24512h2.36697z"/></g></svg>

<svg width="90" height="50" viewBox="0 0 90 50" fill="none" xmlns="http://www.w3.org/2000/svg">
<path d="M83.8074 48.1258C85.4725 47.4334 86.9448 46.4044 88.2314 45.0195L84.1102 40.3664C83.4703 41.0265 82.6997 41.596 81.7984 42.0684C80.8971 42.5408 79.8651 42.7803 78.7092 42.7803C76.7828 42.7803 75.2347 42.0749 74.0582 40.6705C72.8817 39.2662 72.2969 37.2341 72.2969 34.5937C72.2969 33.3317 72.4689 32.1927 72.8267 31.1896C73.1776 30.1865 73.6523 29.3387 74.244 28.6463C74.8357 27.9538 75.5237 27.4232 76.308 27.0543C77.0855 26.6789 77.918 26.4977 78.8055 26.4977C79.8169 26.4977 80.7045 26.6919 81.4888 27.0802C82.2663 27.4685 83.0231 27.9668 83.7593 28.5686L87.8805 23.8249C86.8072 22.8218 85.5 21.9482 83.9382 21.2169C82.3764 20.4856 80.6082 20.1167 78.6198 20.1167C76.7277 20.1167 74.9182 20.4468 73.1913 21.1069C71.4644 21.767 69.937 22.7248 68.6091 23.9738C67.2812 25.2228 66.2148 26.763 65.4236 28.588C64.6255 30.413 64.2333 32.5034 64.2333 34.859C64.2333 37.2406 64.6186 39.3309 65.3823 41.13C66.146 42.9227 67.178 44.4176 68.4715 45.6149C69.7719 46.8056 71.2855 47.6987 73.0055 48.2876C74.7325 48.8765 76.542 49.1742 78.434 49.1742C80.3467 49.1613 82.1424 48.8183 83.8074 48.1258ZM60.2841 48.6436V20.628H52.3994V48.6371H60.2841V48.6436ZM32.2404 26.5754H32.6945C33.761 26.5754 34.7723 26.6854 35.7149 26.899C36.6644 27.1125 37.4763 27.5073 38.1643 28.0833C38.8523 28.6592 39.3958 29.4617 39.788 30.4972C40.1871 31.5326 40.3866 32.8658 40.3866 34.5031C40.3866 36.1404 40.1871 37.493 39.788 38.5543C39.389 39.6157 38.8454 40.4505 38.1643 41.0524C37.4831 41.6542 36.6575 42.0814 35.7149 42.3208C34.7723 42.5667 33.761 42.6897 32.6945 42.6897H32.2404V26.5754ZM33.6165 48.6436C35.7562 48.6436 37.7308 48.3718 39.5541 47.8217C41.3704 47.2781 42.946 46.4303 44.2739 45.2783C45.6018 44.1264 46.6338 42.6638 47.3631 40.8776C48.0993 39.0979 48.4639 36.9688 48.4639 34.5031C48.4639 32.0374 48.0924 29.9212 47.3424 28.1674C46.5925 26.4136 45.5467 24.9769 44.2051 23.8573C42.8634 22.7377 41.2466 21.9158 39.3683 21.4046C37.49 20.8868 35.4191 20.628 33.1624 20.628H24.3626V48.6371H33.6165V48.6436ZM9.05421 48.6436V38.3861H18.9479V32.1798H9.05421V26.8342H20.5992V20.628H1.17639V48.6371H9.05421V48.6436Z" fill="#21295E"/>
<path d="M84.0135 15.3807V8.84591C84.3576 8.0357 84.7773 7.46457 85.252 7.13251C85.7337 6.8071 86.1947 6.64108 86.6282 6.64108C86.869 6.64108 87.0686 6.65436 87.2337 6.68092L87.7773 6.81374L88.2314 4.63547C87.9149 4.48937 87.4952 4.41632 86.9653 4.41632C86.3736 4.41632 85.8025 4.60226 85.2452 4.97416C84.6878 5.34607 84.2131 5.87735 83.8209 6.57466H83.7452L83.5663 4.68196H81.4264V15.3807H84.0135ZM70.8782 7.0329C71.3736 6.58131 71.9516 6.35551 72.619 6.35551C73.3828 6.35551 73.9539 6.59459 74.3254 7.05946C74.6901 7.53098 74.8759 8.1818 74.8759 9.01194H69.9562C70.0732 8.1486 70.3828 7.48449 70.8782 7.0329ZM74.9378 15.3143C75.5846 15.0952 76.1695 14.8229 76.6993 14.4842L75.8186 12.9169C75.4126 13.1626 74.9998 13.3552 74.5869 13.4947C74.1741 13.6341 73.7268 13.7005 73.2452 13.7005C72.3438 13.7005 71.6007 13.4415 71.0227 12.9235C70.4447 12.4055 70.0938 11.6684 69.9768 10.7121H77.0227C77.0502 10.5792 77.0777 10.4066 77.0984 10.1874C77.1259 9.96825 77.1328 9.73582 77.1328 9.4901C77.1328 8.75294 77.0365 8.06891 76.8369 7.44464C76.6374 6.82038 76.3553 6.28246 75.9631 5.83086C75.5777 5.37927 75.103 5.03393 74.5319 4.78157C73.9608 4.53585 73.3002 4.40967 72.5433 4.40967C71.8965 4.40967 71.2635 4.5425 70.6442 4.8015C70.025 5.0605 69.4814 5.4324 69.0066 5.91056C68.5319 6.38871 68.1534 6.97977 67.8644 7.67708C67.5823 8.3744 67.4378 9.15804 67.4378 10.028C67.4378 10.9179 67.5754 11.7016 67.8576 12.3922C68.1397 13.0829 68.525 13.6673 69.0204 14.1455C69.5158 14.6236 70.0938 14.9889 70.7543 15.2479C71.4149 15.5003 72.1305 15.6264 72.9011 15.6264C73.6167 15.6397 74.291 15.5335 74.9378 15.3143ZM57.4126 13.3751C57.0273 13.2423 56.642 13.0099 56.2498 12.6778V7.69036C57.0892 6.89344 57.908 6.49497 58.6855 6.49497C59.525 6.49497 60.1374 6.79382 60.5158 7.39152C60.8943 7.98921 61.08 8.81935 61.08 9.8952C61.08 11.1172 60.8323 12.0336 60.3369 12.6512C59.8415 13.2689 59.2222 13.5744 58.486 13.5744C58.1557 13.5744 57.7979 13.5079 57.4126 13.3751ZM60.8117 15.2479C61.3828 14.9889 61.8851 14.6104 62.3255 14.1123C62.7658 13.6142 63.1099 13.0099 63.3713 12.2926C63.6328 11.5754 63.7635 10.7585 63.7635 9.84207C63.7635 9.01194 63.6672 8.26814 63.4676 7.59739C63.2681 6.92664 62.986 6.36215 62.6076 5.88399C62.2291 5.41248 61.775 5.04722 61.2314 4.79486C60.6878 4.5425 60.0686 4.41632 59.3805 4.41632C58.8094 4.41632 58.2521 4.5425 57.7016 4.78822C57.1511 5.03394 56.642 5.35935 56.1741 5.74453L56.2429 3.95808V0H53.6488V15.3807H55.6993L55.9264 14.2517H55.9952C56.4631 14.7033 56.9585 15.042 57.4745 15.2878C57.9975 15.5268 58.5066 15.6464 59.0227 15.6464C59.642 15.6397 60.2406 15.5069 60.8117 15.2479ZM35.4149 15.3807V7.90952C36.275 7.01962 37.0456 6.58131 37.7406 6.58131C38.3255 6.58131 38.7589 6.76061 39.0411 7.12587C39.3163 7.49113 39.4608 8.11539 39.4608 8.99866V15.3807H42.0548V7.90952C42.9149 7.01962 43.6855 6.58131 44.3805 6.58131C44.9516 6.58131 45.3782 6.76061 45.6534 7.12587C45.9287 7.49113 46.0732 8.11539 46.0732 8.99866V15.3807H48.6947V8.67324C48.6947 7.30518 48.4195 6.25589 47.8622 5.52537C47.3048 4.79486 46.4378 4.42296 45.2681 4.42296C44.5594 4.42296 43.9195 4.60891 43.3484 4.96752C42.7773 5.33278 42.2268 5.79102 41.7039 6.34223C41.4493 5.73125 41.0778 5.25973 40.5892 4.92768C40.1007 4.59562 39.447 4.42296 38.6351 4.42296C37.9401 4.42296 37.3209 4.58898 36.7704 4.92768C36.22 5.25973 35.7177 5.66484 35.2498 6.14964H35.1603L34.9814 4.6886H32.8415V15.3874H35.4149V15.3807ZM22.2796 7.0329C22.775 6.58131 23.353 6.35551 24.0204 6.35551C24.7842 6.35551 25.3553 6.59459 25.7268 7.05946C26.0915 7.53098 26.2773 8.1818 26.2773 9.01194H21.3576C21.4745 8.1486 21.7842 7.48449 22.2796 7.0329ZM26.3461 15.3143C26.9929 15.0952 27.5778 14.8229 28.1076 14.4842L27.2268 12.9169C26.8209 13.1626 26.408 13.3552 25.9952 13.4947C25.5823 13.6341 25.1351 13.7005 24.6534 13.7005C23.7521 13.7005 23.009 13.4415 22.431 12.9235C21.853 12.4055 21.5021 11.6684 21.3851 10.7121H28.4241C28.4516 10.5792 28.4791 10.4066 28.4998 10.1874C28.5273 9.96825 28.5342 9.73582 28.5342 9.4901C28.5342 8.75294 28.4378 8.06891 28.2383 7.44464C28.0388 6.82038 27.7567 6.28246 27.3645 5.83086C26.9791 5.37927 26.5044 5.03393 25.9333 4.78157C25.3622 4.53585 24.7016 4.40967 23.9447 4.40967C23.2979 4.40967 22.6649 4.5425 22.0456 4.8015C21.4264 5.0605 20.8828 5.4324 20.408 5.91056C19.9333 6.38871 19.5548 6.97977 19.2658 7.67708C18.9837 8.3744 18.8392 9.15804 18.8392 10.028C18.8392 10.9179 18.9768 11.7016 19.259 12.3922C19.5411 13.0829 19.9264 13.6673 20.4218 14.1455C20.9172 14.6236 21.4952 14.9889 22.1557 15.2479C22.8163 15.5003 23.5319 15.6264 24.3025 15.6264C25.0181 15.6397 25.6993 15.5335 26.3461 15.3143ZM3.54336 15.3807V8.86584C3.54336 8.53378 3.5296 8.16852 3.50896 7.7767C3.48832 7.38488 3.45391 6.98641 3.41951 6.58795C3.38511 6.18948 3.3507 5.79766 3.30942 5.41248C3.26813 5.02729 3.24061 4.66868 3.20621 4.33662H3.29566L4.47226 7.65052L6.90804 14.0525H8.46309L10.8782 7.65052L12.0755 4.33662H12.1649C12.1374 4.66868 12.0961 5.02729 12.0548 5.41248C12.0067 5.79766 11.9723 6.18948 11.9379 6.58795C11.9103 6.98641 11.8828 7.38488 11.8622 7.7767C11.8346 8.16852 11.8278 8.53378 11.8278 8.86584V15.3807H14.2429V1.12898H11.2635L8.71079 8.10211C8.54565 8.5537 8.39428 9.01194 8.24978 9.48345C8.11217 9.96161 7.95391 10.4265 7.78877 10.8914H7.69932C7.53419 10.4265 7.37593 9.96161 7.22455 9.48345C7.07318 9.01194 6.91492 8.5537 6.74978 8.10211L4.13511 1.12898H1.17639V15.3741H3.54336V15.3807Z" fill="#21295E"/>
</svg>
